X:1
T:[ID 7-124]
T:[ID 7-124]
T:Bezeichnung standardisiert: March March Primo
T:Urheber unbekannt Datum in der hier transkribierten schriftlichen Quelle: 1799
C:Urheber unbekannt
C:Datum in der hier transkribierten schriftlichen Quelle: 1799
L:1/8
M:4/4
K:D
V:1 treble nm="Primo"
V:1
 d4 D4 x120 | D2 F>D A2 z2 | d2 f2 fedc | d2 F>D A2 z2 | f2 a2 agfe | fe d2 z2 cd | e2 f>e e2 cd | %7
 e2 (3a^gf e3 d | (3cde (3fed c2 B2 | A2 A>A A2 z2 :: a4 A4 | A2 c>A e2 ef | .g.f.e.d .c.B.A.G | %13
 d2 dd dfeg | f2 f>f fdfg | a2 a>a bagf | e2 e>e e2 z2 |"^O)"{e} d2 (3def{f} e2 (3efg | %18
{g} f2 a2 agfe |"^O)"{e} d2 (3def{f} e2 (3efg |{g} f2 a2 agfe | d2 d>d d2 z2 :| %22

